T: Mac's Fancy
M: 6/8
L: 1/8
K: Amix
|: (g/f/) | eAA fed | eAA f2d | eAA gfe | dBG Ggf |!eAA fed | eAA f2d | agf gfe | dBG A2 ::!B | A2a aba | gef gdB | A2a aba | gfe dcB |!A2a aba | gef g2f | gfe efg | dBG A2 :|!
